X:410
T: JOSEPHUS DER ROEMISCHE KAISER
N: E0337
O: Europa, Mitteleuropa, Deutschland, Odenwald
R: historisches Lied, Tod Kaiser Joseph II (1790)
M: 6/8
L: 1/8
K: G
D | DGGGAB | B3A2
d | dBBcAA | B4z
D | DGGGAB | B3A2
d | dBBcAA | B4z
G | G2BB2d | d2Bc2
B | BAAABc | c2AB2
D | DGGGAB | B3A2
d | dBBcAA | A3Gz

